www/assets/icons/bookmark_added.svg

<svg width="24" height="24" viewBox="0 0 24 24" xmlns="http://www.w3.org/2000/svg" fill='currentColor'><path d="M17.115 21.1849L10.115 18.1849L3.11499 21.1849V5.18494C3.11499 4.08494 4.01499 3.18494 5.11499 3.18494H12.115C11.485 4.02494 11.115 5.05494 11.115 6.18494C11.115 8.94494 13.355 11.1849 16.115 11.1849C16.455 11.1849 16.795 11.1549 17.115 11.0849V21.1849ZM15.945 9.18494L13.115 6.35494L14.525 4.94494L15.935 6.35494L19.475 2.81494L20.885 4.22494L15.945 9.18494Z"/></svg>

<svg xmlns="http://www.w3.org/2000/svg" width="24" height="24" viewBox="0 0 24 24" fill='currentColor'><path d="m17.115 21.185-7-3-7 3v-16c0-1.1.9-2 2-2h7a5.002 5.002 0 0 0 5 7.9zm-1.17-12-2.83-2.83 1.41-1.41 1.41 1.41 3.54-3.54 1.41 1.41z"/></svg>
